X: 37
T:Da Grocer
M:4/4
L:1/8
C:Tom Anderson
S:Shetland
R:Reel
K:D
dB|"D"AD D/D/D DFAc|"D"defd edBd|"Em"BE E/E/E Bdef|"A"gefd edBd|!
"D"AD D/D/D DFAc|"D"defd edBd|"Em"BE E/E/E Bcde|"A"fdec "D"d2:|!
|:g2|"D"fd d/d/d fgaf|"D"gefd edBd|"Em"Be e/e/e edef|"A"gefd edBd|!
"D"AD D/D/D DFAc|"D"defd edBd|"Em"BE E/E/E Bcde|"A"fdec "D"d2:||
